symbols/web/assignment/materialsymbolsrounded/assignment_wght200fill1_48px.svg

<svg xmlns="http://www.w3.org/2000/svg" height="48" width="48"><path d="M15.75 32.55h10.3q.35 0 .575-.225.225-.225.225-.575 0-.3-.225-.525Q26.4 31 26.05 31h-10.3q-.3 0-.525.225Q15 31.45 15 31.8q0 .3.225.525.225.225.525.225Zm0-7.8h16.5q.3 0 .525-.225Q33 24.3 33 24q0-.35-.225-.55-.225-.2-.525-.2h-16.5q-.3 0-.525.225Q15 23.7 15 24q0 .35.225.55.225.2.525.2Zm0-7.75h16.5q.3 0 .525-.225Q33 16.55 33 16.2q0-.3-.225-.525-.225-.225-.525-.225h-16.5q-.3 0-.525.225Q15 15.9 15 16.25q0 .3.225.525.225.225.525.225Zm-5 23q-1.1 0-1.925-.825T8 37.25v-26.5q0-1.1.825-1.925T10.75 8H21q-.4-1.5.525-2.75T24 4q1.6 0 2.525 1.25Q27.45 6.5 27 8h10.25q1.1 0 1.925.825T40 10.75v26.5q0 1.1-.825 1.925T37.25 40ZM24 8.75q.65 0 1.15-.475.5-.475.5-1.175 0-.65-.5-1.125T24 5.5q-.65 0-1.125.475T22.4 7.1q0 .7.475 1.175.475.475 1.125.475Z"/></svg>

<svg xmlns="http://www.w3.org/2000/svg" height="48" width="48"><path d="M15.75 32.55H26.05Q26.4 32.55 26.625 32.325Q26.85 32.1 26.85 31.75Q26.85 31.45 26.625 31.225Q26.4 31 26.05 31H15.75Q15.45 31 15.225 31.225Q15 31.45 15 31.8Q15 32.1 15.225 32.325Q15.45 32.55 15.75 32.55ZM15.75 24.75H32.25Q32.55 24.75 32.775 24.525Q33 24.3 33 24Q33 23.65 32.775 23.45Q32.55 23.25 32.25 23.25H15.75Q15.45 23.25 15.225 23.475Q15 23.7 15 24Q15 24.35 15.225 24.55Q15.45 24.75 15.75 24.75ZM15.75 17H32.25Q32.55 17 32.775 16.775Q33 16.55 33 16.2Q33 15.9 32.775 15.675Q32.55 15.45 32.25 15.45H15.75Q15.45 15.45 15.225 15.675Q15 15.9 15 16.25Q15 16.55 15.225 16.775Q15.45 17 15.75 17ZM10.75 40Q9.65 40 8.825 39.175Q8 38.35 8 37.25V10.75Q8 9.65 8.825 8.825Q9.65 8 10.75 8H20.65Q20.35 6.5 21.375 5.25Q22.4 4 24.05 4Q25.7 4 26.675 5.25Q27.65 6.5 27.35 8H37.25Q38.35 8 39.175 8.825Q40 9.65 40 10.75V37.25Q40 38.35 39.175 39.175Q38.35 40 37.25 40ZM24 8.75Q24.65 8.75 25.15 8.275Q25.65 7.8 25.65 7.15Q25.65 6.5 25.15 6Q24.65 5.5 24 5.5Q23.35 5.5 22.875 6Q22.4 6.5 22.4 7.15Q22.4 7.8 22.875 8.275Q23.35 8.75 24 8.75Z"/></svg>
